images/azuki.svg

<svg height="250" viewBox="0 0 250 250" width="250" xmlns="http://www.w3.org/2000/svg"><path d="m0 125v125h250v-250h-250zm193.125-14c0 .1875-1.5625 4.0625-3.4375 8.625l-3.5 8.3125 3.0625 7.125c1.6875 3.9375 3.25 7.75 3.5 8.5625l.5 1.4375-17.25-.375-2.4375-5.8125c-1.375-3.1875-2.625-5.625-2.8125-5.5-.125.1875-.25 2.875-.1875 6l.125 5.625h-17.5625v-34.4375l8.625.1875 8.5625.1875v5.8125c0 3.125.25 5.6875.5625 5.5625s1.5-2.5625 2.6875-5.4375c1.25-2.9375 2.4375-5.625 2.6875-5.9375.5-.625 16.875-.5625 16.875.0625zm-123.5 16 5.875 17.1875c.1875.625-1.6875.8125-8.1875.8125h-8.4375l-1.5-4.5-1.5625-4.5625-1.375 4.5625-1.375 4.5h-8.375c-4.625 0-8.4375-.1875-8.4375-.5 0-.25 2.5625-7.9375 5.75-17.1875l5.8125-16.6875h16.25zm42.25-15.8125c0 .3125-1.8125 4.5-4.0625 9.375l-4.0625 9.125c0 .1875 1.8125.3125 4.0625.3125h4.0625v15h-34.3125l1.125-2.6875 4.375-9.4375c1.75-3.6875 3.1875-6.875 3.1875-7s-1.9375-.25-4.375-.25h-4.375v-15h17.1875c9.625 0 17.1875.25 17.1875.5625zm19.5 8.3125c.125 6.375.375 8.9375 1 9.125.5625.1875.75-1.875.75-8.875v-9.125h16.875v10.4375c0 9.6875-.125 10.75-1.5 13.625-3.0625 6.625-8.875 10.3125-16.375 10.3125-5.4375 0-9.6875-1.9375-13.375-6.0625-3.625-4.125-4.375-7.3125-4.375-18.75v-9.5625h16.8125zm81.125 8.3125v17.1875h-16.875v-34.375h16.875zm0 0"/></svg>

<svg xmlns="http://www.w3.org/2000/svg" xmlns:xlink="http://www.w3.org/1999/xlink" width="250px" height="250px" viewBox="0 0 250 250" version="1.1">
<g id="surface1">
<path style=" stroke:none;fill-rule:nonzero;fill:rgb(0%,0%,0%);fill-opacity:1;" d="M 0 125 L 0 250 L 250 250 L 250 0 L 0 0 Z M 193.125 111 C 193.125 111.1875 191.5625 115.0625 189.6875 119.625 L 186.1875 127.9375 L 189.25 135.0625 C 190.9375 139 192.5 142.8125 192.75 143.625 L 193.25 145.0625 L 176 144.6875 L 173.5625 138.875 C 172.1875 135.6875 170.9375 133.25 170.75 133.375 C 170.625 133.5625 170.5 136.25 170.5625 139.375 L 170.6875 145 L 153.125 145 L 153.125 110.5625 L 161.75 110.75 L 170.3125 110.9375 L 170.3125 116.75 C 170.3125 119.875 170.5625 122.4375 170.875 122.3125 C 171.1875 122.1875 172.375 119.75 173.5625 116.875 C 174.8125 113.9375 176 111.25 176.25 110.9375 C 176.75 110.3125 193.125 110.375 193.125 111 Z M 69.625 127 L 75.5 144.1875 C 75.6875 144.8125 73.8125 145 67.3125 145 L 58.875 145 L 57.375 140.5 L 55.8125 135.9375 L 54.4375 140.5 L 53.0625 145 L 44.6875 145 C 40.0625 145 36.25 144.8125 36.25 144.5 C 36.25 144.25 38.8125 136.5625 42 127.3125 L 47.8125 110.625 L 64.0625 110.625 Z M 111.875 111.1875 C 111.875 111.5 110.0625 115.6875 107.8125 120.5625 L 103.75 129.6875 C 103.75 129.875 105.5625 130 107.8125 130 L 111.875 130 L 111.875 145 L 77.5625 145 L 78.6875 142.3125 L 83.0625 132.875 C 84.8125 129.1875 86.25 126 86.25 125.875 C 86.25 125.75 84.3125 125.625 81.875 125.625 L 77.5 125.625 L 77.5 110.625 L 94.6875 110.625 C 104.3125 110.625 111.875 110.875 111.875 111.1875 Z M 131.375 119.5 C 131.5 125.875 131.75 128.4375 132.375 128.625 C 132.9375 128.8125 133.125 126.75 133.125 119.75 L 133.125 110.625 L 150 110.625 L 150 121.0625 C 150 130.75 149.875 131.8125 148.5 134.6875 C 145.4375 141.3125 139.625 145 132.125 145 C 126.6875 145 122.4375 143.0625 118.75 138.9375 C 115.125 134.8125 114.375 131.625 114.375 120.1875 L 114.375 110.625 L 131.1875 110.625 Z M 212.5 127.8125 L 212.5 145 L 195.625 145 L 195.625 110.625 L 212.5 110.625 Z M 212.5 127.8125 "/>
</g>
</svg>
